!!!COM: Beethoven, Ludwig van
!!!CDT: 1770///-1827///
!!!OTL: Piano Sonata no. 30 in E major
!!!ODT: 1820///
!!!OPS: 109
!!!OMV: 2
!!!OMD: Prestissimo
**kern	**kern	**dynam
*staff2	*staff1	*staff1/2
*Ipiano	*Ipiano	*Ipiano
*clefF4	*clefG2	*
*k[f#]	*k[f#]	*
*e:	*e:	*
*MM240	*MM240	*
*M6/8	*M6/8	*
=1	=1	=1
!LO:TX:b:i:t=ben marcato	!	!LO:DY:cj
2.EE 2.E	[4.g	ff
.	(8gL]	.
.	8e	.
.	8bJ)	.
=2	=2	=2
2.DD 2.D	[4.b	.
.	(8bL]	.
.	8g	.
.	8eeJ)	.
=3	=3	=3
*	*^	*
4.CC 4.C	(4ee	4rg	.
.	8ff#	8rg	.
4.AAA 4.AA	4gg	4.cc	.
.	8ff#)	.	.
=4	=4	=4	=4
2.BBB 2.BB	(4.ee	2.f#	.
.	4dd#)	.	.
.	8rff	.	.
*	*v	*v	*
=5	=5	=5
2.AAA 2.AA	[4.cc	.
.	(8ccL]	.
.	8a	.
.	8eeJ)	.
=6	=6	=6
2.GGG 2.GG	[4.ee	.
.	(8eeL]	.
.	8b	.
.	8bbJ)	.
=7	=7	=7
*	*^	*
4.FFF# 4.FF#	(8bbL	4.ee	.
.	8ccc	.	.
.	8aaJ	.	.
4.BBB 4.BB	8ggL	4.dd#	.
.	8ff#	.	.
.	8bbJ)	.	.
*	*v	*v	*
!!LO:LB:g=original
=8	=8	=8
4EE 4E	4ee	.
8r	8r	.
4r	4r	.
8r	8r	.
=9	=9	=9
*^	*	*
8rA	2.BB	[4.a	p
8F#L	.	.	.
8GJ	.	.	.
4.A	.	8aL]	.
.	.	8g	.
.	.	8f#J	.
=10	=10	=10	=10
8rA	2.BB	[4.b/	.
8GL	.	.	.
8AJ	.	.	.
4.B	.	8bL]	.
.	.	8a	.
.	.	8gJ	.
=11	=11	=11	=11
*	*	*^	*
(4.A	[2.BB	(4cc	4.f#	<
.	.	[8ff#	.	.
4.A#	.	4ff#]	4.g	.
.	.	8ee	.	.
=12	=12	=12	=12	=12
4.B	2.BB]	4dd#	4.f#	.
.	.	8ff#	.	.
4.E)	.	4gg	4.g	[ >
.	.	8ee)	.	]]
*	*	*v	*v	*
=13	=13	=13	=13
8rA	2.BB	[4.a	.
8F#L	.	.	.
8GJ	.	.	.
4.A	.	8aL]	.
.	.	8g	.
.	.	8f#J	.
=14	=14	=14	=14
8rA	2.BB	[4.b/	.
8GL	.	.	.
8AJ	.	.	.
4.B	.	8bL]	.
.	.	8a	.
.	.	8gJ	.
!!LO:LB:g=original
=15	=15	=15	=15
*	*	*^	*
(4.A	[2.BB	(4cc	4.f#	<
.	.	[8ff#	.	.
4.A#	.	4ff#]	4.g	.
.	.	8ee	.	.
=16	=16	=16	=16	=16
4.B	2.BB]	4dd#	4.f#	.
.	.	8ff#	.	.
4.E)	.	8eeL	8g	[ >
.	.	8f#	8rc	.
.	.	8gJ)	8rc	]]
=17	=17	=17	=17	=17
8rA	2.BB	[4.a	8rc	.
8F#L	.	.	8f#L	.
8GJ	.	.	8eJ	.
4A	.	8aL]	4d#	.
.	.	8g	.	.
8r	.	8f#J	8r	.
=18	=18	=18	=18	=18
8rA	2.BB	[4.b	8r	.
8GL	.	.	8gL	.
8AJ	.	.	8f#J	.
4B	.	8bL]	4e	.
.	.	8a	.	.
8r	.	8gJ	8r	.
=19	=19	=19	=19	=19
(4.A	[2.BB	(4cc	8re	.
.	.	.	[4f#	<
.	.	[8ff#	.	.
4.A#	.	4ff#]	8f#]	.
.	.	.	[4g	.
.	.	8ee	.	.
=20	=20	=20	=20	=20
4.B	2.BB]	4dd#	8g]	.
.	.	.	4f#	.
.	.	[8ff#	.	[
4.E)	.	8ff#L]	4.g	>
.	.	8gg	.	.
.	.	8eeJ)	.	]]
=21	=21	=21	=21	=21
8rA	2.BB	[4.a	8rc	.
8F#L	.	.	8f#L	.
8GJ	.	.	8eJ	.
4A	.	8aL]	4d#	.
.	.	8g	.	.
8rA	.	8f#J	8rc	.
!!LO:LB:g=original
=22	=22	=22	=22	=22
8r	2.BB	[4.b	8r	.
8GL	.	.	8gL	.
8AJ	.	.	8f#J	.
4B	.	8bL]	4e	.
.	.	8a	.	.
8r	.	8gJ	8r	.
=23	=23	=23	=23	=23
(4.A	2.BB	(4cc	8re	.
.	.	.	[4f#	<
.	.	[8ff#	.	.
4.A#	.	4ff#]	8f#]	.
.	.	.	[4g	.
.	.	8ee	.	.
*v	*v	*	*	*
=24	=24	=24	=24
4.BB 4.B	4dd#	8g]	.
.	.	4f#	.
.	8ff#	.	[
4EE 4E)	4ee)	4g	>
8r	8r	8r	]]
*	*v	*v	*
*	*clefF4	*
=25	=25	=25
(4GG	(4G	p
8FF#	8F#	.
4DD#	4D#	.
8EE	8E	.
=26	=26	=26
4.BBB)	4.BB)	.
4BBB	4BB	.
8BBB	8BB	.
=27	=27	=27
(4.BBB	(4.BB	.
4AAA	4AA	.
8BBB)	8BB)	.
=28	=28	=28
(4.CC	(4.C	.
4.BBB)	4.BB)	.
*	*clefG2	*
!!LO:LB:g=original
=29	=29	=29
!	!LO:TX:i:c:t=un poco expressivo	!
4EE	(4gg	.
8r	8ff#	.
4r	4dd#	.
8r	8ee)	.
=30	=30	=30
*	*^	*
4r	4.b	4rc	.
(<8f#	.	8a	.
4e	4b	4g	.
8d#	8b	8f#	.
=31	=31	=31	=31
4e	(4.b	4g	.
!	!	!	!LO:HP:a
8dn	.	8f#	<
4c#	4a#	4e	.
8B	8b	8d	.
=32	=32	=32	=32
4A#	4.cc#	4.c#	.
8G	.	.	[
!	!	!	!LO:HP:a
4F#	4.ddn)	[4.b	>
8E#)	.	.	]]
=33	=33	=33	=33
*^	*	*	*
!!LO:TX:a:B:t=a Tempo
4.F#	2.F#	[4.cc#	8bL]	p
.	.	.	8f#	.
.	.	.	8a#J	.
8A#L	.	8cc#L]	[4.f#	.
8B	.	8dd	.	.
8c#J	.	8eeJ	.	.
=34	=34	=34	=34	=34
[4.B	2.F#	[4.dd	8f#L]	.
.	.	.	8f#	.
.	.	.	8bJ	.
8BL]	.	8ddL]	[4.f#	.
8c#	.	8ee	.	.
8dJ	.	8ff#J	.	.
*v	*v	*	*	*
!!LO:LB:g=original
=35	=35	=35	=35
8F#L	(4ee	4.f#]	<
8c#	.	.	.
8dJ	8ff#	.	.
8F#L	4gg	4a#	.
8e	.	.	.
8dJ	8ff#	8b	.
=36	=36	=36	=36
8F#L	4ee	8cc#	.
8c#	.	[4f#	.
8BJ	8dd	.	.
8F#L	4cc#	4.f#]	.
8A#	.	.	.
8BJ	8dd)	.	.
=37	=37	=37	=37
*^	*	*	*
8F#L	2.F#	[4.cc#	8cc#L	.
8A#	.	.	8a#	.
8c#J	.	.	[8f#J	.
8A#L	.	8cc#L]	4.f#]	.
8B	.	8dd	.	.
8c#J	.	8eeJ	.	.
=38	=38	=38	=38	=38
8F#L	2.F#	[4.dd	8ddL	.
8B	.	.	8b	.
8dJ	.	.	[8f#J	.
8BL	.	8ddL]	4.f#_	.
8c#	.	8ee	.	.
8dJ	.	8ff#J	.	.
*v	*v	*	*	*
*	*v	*v	*
=39	=39	=39
!	!	!LO:HP:c:i:t=sempre più %s
8F#L	4f#] (4ee	<
8c#	.	.
8dJ	8f# 8ff#	.
8F#L	4g 4gg	.
8e	.	.
8dJ	8f# 8ff#	.
=40	=40	=40
8F#L	4g 4gg	.
8e	.	.
8f#J	8a# 8aa#	.
8F#L	4b 4bb	.
8g	.	.
8f#J	8a# 8aa#	.
!!LO:LB:g=original
=41	=41	=41
8F#L>	4b 4bb	.
*clefG2	*	*
8g	.	.
8a#J	8cc# 8ccc#	.
8bL	4dd 4ddd	.
8B	.	.
8a#J	8cc# 8ccc#	.
=42	=42	=42
8bL	4dd 4ddd	.
8B	.	.
8a#J	8cc# 8ccc#	.
4b/	4dd 4ddd	.
*clefF4	*	*
8BB	8ff# [8ddd	>]
=43	=43	=43
8C#L	4ee# 4ddd])	p
8E#	.	.
8G#J	[8dd	.
8C#L	(8ddL]	.
8D#	8cc#	.
8E#J	8bJ)	.
=44	=44	=44
8C#L	(4b	.
8A	.	.
8F#J	8g#	.
8CnL	4an	.
8F#	.	.
8D#J	[8ff#)	.
=45	=45	=45
8BBL	(4ff#]	.
8D#	.	.
8F#J	8ccn	.
8BBL<	4b	.
8C#	.	.
8D#J	8a\)	.
=46	=46	=46
8BBL	(4a	.
8Gn	.	.
8EJ	8f#	.
8BB-L<	4gn	.
8E	.	.
8C#J	[8ee)	.
!!LO:LB:g=original
=47	=47	=47
8AAL	4ee]	.
8C#	.	.
8EJ	[8b-	.
8AAL	8b-L]	.
8BBn	8a	.
8C#J	8gJ	.
=48	=48	=48
8AAL	(4g	.
8Fn	.	.
8DJ	8e	.
8AA-L	4fn	.
8D	.	.
8BBJ	[8ffn)	.
=49	=49	=49
*^	*	*
8GGL	2.GG	2.ff_	<
8AAn	.	.	.
8BBJ	.	.	.
8CL	.	.	.
8D	.	.	.
8BBJ	.	.	.
=50	=50	=50	=50
8GGL	4.GG	(4ff]	.
8C	.	.	.
8EJ	.	8ee	.
8GGL	4.FFn	4dd	.
8BB	.	.	.
8DJ	.	8gg)	[
=51	=51	=51	=51
8FF#L	2.FF#	4r	p
8GG	.	.	.
8BBJ	.	8r	.
8DL	.	(4gg	.
8BB	.	.	.
8GGJ	.	8dd	.
=52	=52	=52	=52
8EEL	2.EE	4gg`)	.
8GG	.	.	.
8CJ	.	8r	.
8EL	.	4gg	.
8C	.	.	.
8GGJ	.	8r	.
!!LO:LB:g=original
=53	=53	=53	=53
8FFnL	2.FF	4r	.
8GG	.	.	.
8BBJ	.	8r	.
8DL	.	(4ggg	pp
8BB	.	.	.
8GGJ	.	8ddd	.
=54	=54	=54	=54
8EEL	2.EE	4ggg`)	.
8GG	.	.	.
8CJ	.	8r	.
8EL	.	4ggg	.
8C	.	.	.
8GGJ	.	8r	.
*v	*v	*	*
=55	=55	=55
*	*^	*
2.FFFn 2.FFn	4r	(8BL	<
.	.	8d	.
.	8r	8cnJ	.
.	(4g	8BL	.
.	.	8A#	.
.	8d)	8BJ)	.
=56	=56	=56	=56
2.FFF#X 2.FF#X	4f#X	8dL	.
.	.	8B	.
.	8r	8F#J	.
.	4f#	8c#L	.
.	.	8A#	.
.	8r	8F#J	.
*	*v	*v	*
=57	=57	=57
4FF# 4F#	8F#<L	f
.	8G#<	.
8r	8A#<J	.
4FF#\ 4F#\	8BL	.
.	8c#	.
8r	8dJ	.
=58	=58	=58
4FF# 4F#	8eL	.
.	8f#	.
8r	8g#J	.
4FF# 4F#	8a#L>	.
.	8b	.
8r	8cc#J	.
!!LO:LB:g=original
=59	=59	=59
4.DD 4.D	8ddL	.
.	8ee	.
.	8ff#J	.
4.CC# 4.C#	8gg#L	.
.	8aa	.
.	8aa#J	.
=60	=60	=60
4.BBB 4.BB	8bbL	.
.	8aa#	.
.	8bbJ	.
4AAAn 4AAn	8ccc#L	.
.	8ddd	.
8GGG 8GG	8eeeJ	.
=61	=61	=61
8FFF# 8FF#L	4ff# 4fff#	.
8GG#	.	.
8AA#J	8r	.
8BBL	4ff# 4fff#	.
8C#	.	.
8DJ	8r	.
=62	=62	=62
8EL	4ff# 4fff#	.
8F#	.	.
8G#J	8r	.
8A#L	4ff# 4fff#	.
8B	.	.
8c#J	8r	.
*clefG2	*	*
=63	=63	=63
8dL	4.dd 4.ddd	.
8e	.	.
8f#J	.	.
8g#L	4.ccc#tt	.
8a	.	.
8a#J	.	.
.	(16bbqLL	.
.	16qccc#JJ)	.
=64	=64	=64
8bL<	4.bb	.
8a#	.	.
8bJ	.	.
8cc#L	4aan	.
8dd	.	.
8eeJ	8ggn	.
=65	=65	=65
4f#	4ff#	.
8r	8r	.
*clefF4	*	*
4FF# 4F#	4f# 4ff#	.
8r	8r	.
!!LO:LB:g=original
=66	=66	=66
*	*^	*
2.BBB 2.BB	4bb	[4.b	f
.	8raa	.	.
.	4.ryy	(8bL<]	.
.	.	8f#	.
.	.	8ddJ)	.
*	*v	*v	*
=67	=67	=67
2.AAA 2.AA	(8ddL	.
.	8b	.
.	8ff#J)	.
.	(8ff#L	.
.	8dd	.
.	8bbJ)	.
=68	=68	=68
4.GGGn 4.GGn	8bbL	>
.	8eee	.
.	8dddJ	.
(4.EE	8ccc#L	.
.	8ddd	.
.	8bbJ	.
=69	=69	=69
4.FF#	8aa#L	.
.	8gg	.
.	8ff#J	.
4GG#	8eeL	.
.	8dd	.
8AA#)	8cc#J	.
=70	=70	=70
!	!LO:TX:a:i:t=sempre legato	!
8BBBL	2.b	p
8BB	.	.
8BBBJ	.	.
8BBL	.	.
8BBB	.	.
8BBJ	.	.
=71	=71	=71
8BBBL	2.an	.
8BB	.	.
8BBBJ	.	.
8BBL	.	.
8BBB	.	.
8BBJ	.	.
=72	=72	=72
*	*^	*
8BBBL	2.ee	4.g	.
8BB	.	.	.
8BBBJ	.	.	.
8BBL	.	4.e	.
8BBB	.	.	.
8BBJ	.	.	.
!!LO:LB:g=original
=73	=73	=73	=73
8BBBL	2.dd	2.f#	.
8BB	.	.	.
8BBBJ	.	.	.
8BBL	.	.	.
8BBB	.	.	.
8BBJ	.	.	.
=74	=74	=74	=74
8BBBL	4.cc#	2.e	.
8BB	.	.	.
8BBBJ	.	.	.
8BBL	4.a#	.	.
8BBB	.	.	.
8BBJ	.	.	.
=75	=75	=75	=75
8BBBL	2.b	2.d	.
8BB	.	.	.
8BBBJ	.	.	.
8BBL	.	.	.
8BBB	.	.	.
8BBJ	.	.	.
=76	=76	=76	=76
8BBBL	2.an	4.cn	.
8BB	.	.	.
8BBBJ	.	.	.
8BBL	.	4.A	.
8BBB	.	.	.
8BBJ	.	.	.
=77	=77	=77	=77
8BBBL	2.g	2.B	.
8BB	.	.	.
8BBBJ	.	.	.
8BBL	.	.	.
8BBB	.	.	.
8BBJ	.	.	.
=78	=78	=78	=78
8BBBL	4.f#	2.A	.
8BB	.	.	.
8BBBJ	.	.	.
8BBL	4.d#	.	.
8BBB	.	.	.
8BBJ	.	.	.
=79	=79	=79	=79
8CCL	2.e	2.G	.
8C	.	.	.
8CCJ	.	.	.
8CL	.	.	.
8CC	.	.	.
8CJ	.	.	.
*	*v	*v	*
*	*clefF4	*
!!LO:LB:g=original
=80	=80	=80
*	*^	*
8CCL	2.A	4.Fn	.
8C	.	.	.
8CCJ	.	.	.
8CL	.	4.D	.
8CC	.	.	.
8CJ	.	.	.
*	*v	*v	*
*	*clefG2	*
=81	=81	=81
*	*^	*
8CCL	2.g	2.e	.
8C	.	.	.
8CCJ	.	.	.
8CL	.	.	.
8CC	.	.	.
8CJ	.	.	.
=82	=82	=82	=82
8CCL	4.fn	2.A-	.
8C	.	.	.
8CCJ	.	.	.
8CL	4.d	.	.
8CC	.	.	.
8CJ	.	.	.
=83	=83	=83	=83
(8qCC	.	.	.
2.C)	4.e	4.G	.
!	!	!LO:TX:c:t=una corda	!
.	.	.	.
.	[4.cc	4.e	.
=84	=84	=84	=84
2.D	4.cc]	4.a-	.
.	4.b	4.fn	.
=85	=85	=85	=85
*^	*	*	*
2.G	2.E	4r	4r	.
.	.	8r	8r	.
.	.	4.cc	[4.cc	.
=86	=86	=86	=86	=86
2.A	2.F#X	4.ee	4.cc]	.
.	.	4.dd#	4.b	.
=87	=87	=87	=87	=87
2.G#	4rGG	2.e	4.B	.
.	8rGG	.	.	.
.	4.BB	.	[4.dn	.
=88	=88	=88	=88	=88
2.A	4.AA	2.fn	4.d]	.
.	4.C	.	4.c	.
!!LO:LB:g=original
=89	=89	=89	=89	=89
!	!	!	!	!LO:DY:t=sempre più %s
4rA	2.BB	2.dd	4r	p
8rA	.	.	8r	.
4.G#	.	.	4.fn	.
=90	=90	=90	=90	=90
4.A	2.C	2.cc	4.e	.
4.E	.	.	4.a	.
*v	*v	*	*	*
=91	=91	=91	=91
4.D	4.b	4.d 4.fn	.
4.Fn	4.g#	4.B 4.d	.
=92	=92	=92	=92
2.D#	2.c 2.a	4.c	.
.	.	[4.f#X	.
=93	=93	=93	=93
2.EE	2.B 2.gn	4.f#]	.
.	.	[4.e	.
=94	=94	=94	=94
2.FF#	4.e]	2.A 2.f#	.
.	4.d#	.	.
*	*v	*v	*
=95	=95	=95
4.GG	4.B 4.e	.
4.EE	4.B 4.g	.
=96	=96	=96
2.FF#;	2.A#; 2.f#;	.
*clefG2	*	*
=97	=97	=97
2.g	2.b 2.ee	pp
=98	=98	=98
2.f#	2.a 2.dd# 2.ff#	.
!!LO:LB:g=original
=99	=99	=99
(4.e	[4.b (4.gg	.
4.g)	4.b] 4.ee)	.
=100	=100	=100
2.f#	2.a# 2.ff#	.
=101	=101	=101
(4.g	4.b (4.ee	.
4.e	4.b 4.gg	.
=102	=102	=102
4f#)	4a# 4cc# 4ff#)	pp
8r	8r	.
4r	4r	.
8r	8r	.
=103	=103	=103
4f#	4b 4dd 4ff#	.
8r	8r	.
4r	4r	.
8r	8r	.
=104	=104	=104
4f#	4a# 4cc# 4ff#	.
8r	8r	.
4r	4r	.
8r	8r	.
*clefF4	*	*
=105	=105	=105
!!LO:TX:a:t=tutte le corde
2.EE 2.E	[4.g	ff
.	(8gL]	.
.	8e	.
.	8bJ)	.
=106	=106	=106
2.DD 2.D	[4.b	.
.	(8bL]	.
.	8g	.
.	8eeJ)	.
=107	=107	=107
*	*^	*
4.CC 4.C	(4ee	4r	.
.	8ff#	8r	.
4.AAA 4.AA	4gg	4.ccn	.
.	8ff#)	.	.
!!LO:LB:g=original
=108	=108	=108	=108
2.BBB 2.BB	(4.ee	2.f#	.
.	4dd#)	.	.
.	8r	.	.
*	*v	*v	*
=109	=109	=109
2.AAA 2.AA	[4.cc	.
.	(8ccL]	.
.	8a	.
.	8eeJ)	.
=110	=110	=110
2.GGG 2.GG	[4.ee	.
.	(8eeL]	.
.	8b	.
.	8bbJ)	.
=111	=111	=111
*	*^	*
4.FFF# 4.FF#	(8bbL	4.ee	.
.	8ccc	.	.
.	8aaJ	.	.
4.BBB 4.BB	8ggL	4.dd#	.
.	8ff#	.	.
.	8bbJ)	.	.
*	*v	*v	*
=112	=112	=112
[4.GG	4.e\ 4.ee\	ff
!	!LO:DY:b	!
(8GGL]	[4.eez [4.eeez	.
8EE	.	.
8BBJ)	.	.
=113	=113	=113
[4.BB	4.ee] 4.eee]	.
(8BBL]	4ddn 4dddn	.
8GG	.	.
8EJ)	8r	.
=114	=114	=114
*^	*	*
(4E	4r	4cc 4ccc	.
8F#	8r	8r	.
4G	4.C	4a 4aa	.
8F#)	.	8r	.
=115	=115	=115	=115
(4.E	2.BB	2.b 2.bb	.
4.D#)	.	.	.
*v	*v	*	*
!!LO:LB:g=original
=116	=116	=116
[4.C	4.a 4.aa	.
8CL]	[4.aa [4.aaa	.
8AA	.	.
8EJ	.	.
=117	=117	=117
[4.E	4.aa] 4.aaa]	.
(8EL]	4gg 4ggg	.
8BB	.	.
8BJ)	8r	.
=118	=118	=118
*^	*	*
8BL	4r	4ff# 4fff#	.
8c	.	.	.
8BJ	8r	8r	.
8AL	4BB	4dd# 4ddd#	.
8G	.	.	.
8F#J	8r	8r	.
=119	=119	=119	=119
8GL	4E	4ee 4eee	.
8A	.	.	.
8GJ	8r	8r	.
8FnL	4GG	4b 4bb	.
8E	.	.	.
8DJ	8r	8r	.
=120	=120	=120	=120
!	!	!	!LO:DY:t=%s espressivo
4C	4C	(4ee	p
8r	8r	8ddn	.
4r	4r	4b	.
8r	8r	8cc)	.
*v	*v	*	*
=121	=121	=121
*	*^	*
4r	4.g	4rA	.
(8d	.	8fn	.
4c	4g	4e'	.
8B)	8g	8d	.
=122	=122	=122	=122
!!LO:TX:a:B:t=Rit.
(<4c	(4.g	4e'	.
8B	.	8d	<
4A	4f#	4c	.
8G 8B	8g	8d	[[
=123	=123	=123	=123
4.F# 4.c	4.a	4.e-	>
4.G 4.B)	4.g)	4.d	]
*	*v	*v	*
*	*clefF4	*
!!LO:LB:g=original
=124	=124	=124
!!LO:TX:a:B:t=a Tempo
(4EE	(4En	p
8DD	8D	.
4BBB	4BB	.
8CC	8C	.
=125	=125	=125
4.GGG)	4.GG)	.
4GGG 4GG	4r	.
8GGG 8GG	8r	.
*	*clefG2	*
=126	=126	=126
2.GGG 2.GG	(4e	.
.	8d	.
.	4B	.
.	8c#)	.
=127	=127	=127
2.FFF# 2.FF#	4.A#	.
.	4A#	.
.	8A#	.
=128	=128	=128
2.Fn 2.An	(4ccn	<
.	8b	.
.	4g#	.
.	8an)	.
=129	=129	=129
2.E 2.A 2.c	4.a	.
.	4a	.
.	8a	.
=130	=130	=130
*	*^	*
2.D# 2.F# 2.B	(4aa	[2.a	.
.	8gg	.	.
.	4ee	.	.
.	8ff#)	.	.
=131	=131	=131	=131
2.C 2.E 2.A	4.ff#	2.a]	.
.	4ff#	.	.
.	8ff#	.	.
!!LO:LB:g=original
=132	=132	=132	=132
*^	*	*	*
4BB 4D# 4F# 4B	4.ryy	[4.ff#	8rg	p
.	.	.	8bL	.
*clefG2	*clefG2	*	*	*
8r	.	.	8dd#J	.
8d#L	4.B	8ff#L]	[4.b	.
8e	.	8gg	.	.
8f#J	.	8aaJ	.	.
=133	=133	=133	=133	=133
4.e	2.B	[4.gg	8bL]	.
.	.	.	8b	.
.	.	.	8eeJ	.
8eL	.	8ggL]	[4.b	.
8f#	.	8aa	.	.
8gJ	.	8bbJ	.	.
*v	*v	*	*	*
=134	=134	=134	=134
!	!	!	!LO:HP:c:t=crescendo
8BL	(4aa	4.b]	<
8f#	.	.	.
8gJ	8bb	.	.
8BL	4ccc	4dd#	.
8a	.	.	.
8gJ	8bb	8ee	.
=135	=135	=135	=135
8BL	4aa	8ff#	.
8f#	.	[4b	.
8eJ	8gg	.	.
8BL	4ff#	4.b]	.
8d#	.	.	.
8eJ	8gg)	.	.
=136	=136	=136	=136
*^	*	*	*
8BL	2.B	[4.ff#	8ff#L	.
!	!	!	!	!LO:HP:c:t=sempre più %s
8d#	.	.	8dd#	<
8f#J	.	.	[8bJ	.
8d#L	.	8ff#L]	4.b]	.
8e	.	8gg	.	.
8f#J	.	8aaJ	.	.
=137	=137	=137	=137	=137
!	!	!LO:TX:i:a:t=legato	!	!
8BL	2.B	[4.gg	8ggL	.
8e	.	.	8ee	.
8gJ	.	.	[8bJ	.
8eL	.	8ggL]	4.b_	.
8f#	.	8aa	.	.
8gJ	.	8bbJ	.	.
*v	*v	*	*	*
!!LO:LB:g=original
=138	=138	=138	=138
8BL	4aa	4.b]	.
8f#	.	.	.
8gJ	8bb	.	.
8BL	4ccc	4dd#	.
8a	.	.	.
8gJ	8bb	8ee	.
=139	=139	=139	=139
8BL	4aa	8ff#	.
8f#	.	[4b	.
8eJ	8gg	.	.
8BL	4ff#	4.b_	.
8d#	.	.	.
8eJ	8gg	.	.
*	*v	*v	*
=140	=140	=140
!	!LO:TX:a:i:t=sempre legato	!
8BL	4b] 4aa	.
8f#	.	.
8gJ	8b 8bb	.
8BL	4cc 4ccc	.
8a	.	.
8gJ	8b 8bb	.
=141	=141	=141
8BL	4cc 4ccc	.
8a	.	.
8bJ	8dd# 8ddd#	.
8BL	4ee 4eee	.
8cc	.	.
8bJ	8dd# 8ddd#	.
=142	=142	=142
8BL	4ee 4eee	.
8cc	.	.
8dd#J	8ff# 8fff#	.
8eeL	4gg 4ggg	.
8e	.	.
8dd#J	8ff# 8fff#	.
=143	=143	=143
8eeL	4gg 4ggg	.
8e	.	.
8dd#J	8ff# 8fff#	.
4ee	4gg 4ggg	.
*clefF4	*	*
8E	8bb [8ggg	>]
!!LO:LB:g=original
=144	=144	=144
8F#L	4aa# 4ggg]	p
8A#	.	.
8c#J	[8gg	.
8F#L	(8ggL]	.
8G#	8ff#	.
8A#J	8eeJ)	.
=145	=145	=145
8F#L	(4ee	.
8d	.	.
8BJ	8cc#	.
8FnL	4dd)	.
8B	.	.
8G#J	[8fffn^	.
=146	=146	=146
8EL	4fff]	.
8B	.	.
8G#J	[8ffn	.
8EL	(8ffL]	.
8F#X	8ee	.
8G#J	8ddJ)	.
=147	=147	=147
8EL	(4dd	.
8cn	.	.
8AnJ	8b	.
8E-L	4ccn)	.
8A	.	.
8F#XJ	[8eee-^	.
=148	=148	=148
8DL	4eee-]	.
8F#	.	.
8AJ	[8ee-	.
8DL	(8ee-L]	.
8En	8dd	.
8F#J	8ccJ)	.
=149	=149	=149
8DL	(4cc	.
8B-	.	.
8GJ	8a\	.
8D-L	4b-')	.
8G	.	.
8EJ	[8bb-^	.
!!LO:LB:g=original
=150	=150	=150
*^	*	*
8CnL	2.Cn	2.bb-_	.
8Dn	.	.	.
8EJ	.	.	.
8FnL	.	.	.
8G	.	.	.
8EJ	.	.	.
=151	=151	=151	=151
8CL	4.C	(4bb-]	.
8Fn	.	.	.
8AJ	.	8aa	.
8CL	4.BB-	4gg	.
8E	.	.	.
8GJ	.	8ccc)	.
=152	=152	=152	=152
8BB-L	2.BB-	4r	.
8C	.	.	.
8EJ	.	8r	.
8GL	.	(4ccc	p
8E	.	.	.
8CJ	.	8gg	.
=153	=153	=153	=153
8AAL	2.AA	4ccc`)	.
8C	.	.	.
8FnJ	.	8r	.
8AL	.	4ccc	.
8F	.	.	.
8CJ	.	8r	.
=154	=154	=154	=154
8BB-L	2.BB-	4r	.
8C	.	.	.
8EJ	.	8r	.
8GL	.	(4cc	pp
8E	.	.	.
8CJ	.	8g	.
=155	=155	=155	=155
8AAL	2.AA	4cc`)	.
8C	.	.	.
8FnJ	.	8r	.
8AL	.	4cc	.
8F	.	.	.
8CJ	.	8r	.
*v	*v	*	*
*	*clefF4	*
!!LO:LB:g=original
=156	=156	=156
*	*^	*
2.BBB- 2.BB-	4r	8EL	<
.	.	8G	.
.	8r	8FnJ	.
.	(4c	8EL	.
.	.	8D#	.
.	8G)	8EJ	.
=157	=157	=157	=157
*^	*	*	*
8BBnL	2.BBBn	4Bn	8GL	.
8AA	.	.	8F#X	.
8GGJ	.	8rc	8EJ	.
8FF#XL	.	4B	8D#L	.
8EE	.	.	8E	.
8DD#J	.	8r	8F#J	.
*v	*v	*	*	*
*	*v	*v	*
*	*clefG2	*
=158	=158	=158
4BBB 4BB	8BL	f
.	8c#	.
8r	8d#J	.
4BBB 4BB	8eL	.
.	8f#	.
8r	8gJ	.
=159	=159	=159
4BBB 4BB	8aL	.
.	8b	.
8r	8cc#J	.
4BBB 4BB	8dd#L	.
.	8ee	.
8r	8ff#J	.
=160	=160	=160
4.GGG 4.GG	8ggL	.
.	8aa	.
.	8bbJ	.
4.FFF# 4.FF#	8ccc#L	.
.	8ddd	.
.	8ddd#J	.
=161	=161	=161
4.EEE 4.EE	8eeeL	.
.	8ddd#	.
.	8eeeJ	.
4DDn	8fff#L	.
.	8ggg	.
8CC	8aaaJ	.
!!LO:LB:g=original
=162	=162	=162
*	*8va	*
8BBBL	4bb 4bbb	.
8CC#	.	.
8DD#J	8r	.
8EEL	4bb 4bbb	.
8FF#	.	.
8GGJ	8r	.
=163	=163	=163
8AAL	4bb 4bbb	.
8BB	.	.
8C#J	8r	.
8D#L	4bb 4bbb	.
8E	.	.
8F#J	8r	.
=164	=164	=164
8GL	4.gg 4.ggg	.
8A	.	.
8BJ	.	.
*clefG2	*	*
8c#L	4.fff#t	.
8d	.	.
8d#J	.	.
=165	=165	=165
8eL	4.eee	.
8d#	.	.
8eJ	.	.
8f#L	4dddn	.
8g	.	.
8aJ	8cccn	.
*	*X8va	*
*clefF4	*	*
=166	=166	=166
4BB` 4B`	4b` 4bb`	ff
8r	8r	.
4BB` 4B`	4b` 4bb`	.
8r	8r	.
=167	=167	=167
4E` 4e`	4ee` 4eee`	.
8r	8r	.
4r	4r	.
8r	8r	.
=168	=168	=168
4BB	4A 4d# 4f#	p
8r	8r	.
4BB	4A 4d# 4f#	.
8r	8r	.
!!LO:LB:g=original
=169	=169	=169
4E	4G 4B	.
8r	8r	.
4r	4r	.
8r	8r	.
=170	=170	=170
4.BB	2.r	p
4.BB	.	.
=171	=171	=171
4.BB	4.b	.
4.BB	4.b	.
=172	=172	=172
4.GG	4.b 4.ee	.
4.FF#	4.a 4.ee	.
=173	=173	=173
4.EE	4.g 4.ee 4.gg	<
4.DD	4.g 4.ee 4.gg	.
=174	=174	=174
4.CC	4.ee 4.gg 4.ccc	.
4.BBB	4.ee 4.gg 4.ccc	.
=175	=175	=175
4.AAA	4.ee 4.ccc 4.eee	.
4.GGG	4.ee 4.ccc 4.eee	.
=176	=176	=176
4FFF# 4FF#	4ee` 4aa` 4eee`	f
8r	8r	.
4BBB` 4BB`	4dd#` 4ff#` 4ddd#`	.
8r	8r	.
=177	=177	=177
4EE` 4E`	4ee` 4gg` 4eee`	.
8r	8r	.
4r	4r	.
8r	8r	.
==	==	==
*-	*-	*-
!!!RDF**kern: > = above
!!!RDF**kern: < = below
!!!RDF**dynam: > = dim.
!!!verovio: beamFrenchStyle
!!!LOR: Durand 1915, plates 9327/9328, Paul Dukas, ed.
!!!PED: Dukas, Paul
!!!URL-vhv: https://verovio.humdrum.org/?file=beethoven/sonatas/sonata30-2.krn
!!!URL-pdf: https://github.com/craigsapp/beethoven-piano-sonatas/blob/master/reference-edition/sonata30-2.pdf
!!!ENC: Craig Stuart Sapp
!!!END: 2005/08/28
!!!EED: Craig Stuart Sapp
!!!EEV: 2023/04/05
